X:0174
T:The Weavers March or 21st. of August.
N:somebody (Burns?) from near Aird's time thought this was a
N:Swedish tune originally; adopted by weavers in SW Scotland
N:no repeat marked after first part
M:C
L:1/8
Q:1/2=84
I: || ::
Z:Jack Campin * www.campin.me.uk * 2009
K:D
ABAG F2GA|B2B2 TA4   |Bcdc B2B2|     g2f2 Te4 |
ABAG F2GA|B2B2 TA4   |BcdB c2de| {f}Te4    d4||
f2gf e2fe|dfed  c2TBA|Bcdc B2B2|     g2f2 Te4 |
ABAG F2GA|B2B2 TA4   |BcdB c2de|({f}Te4)   d4|]

